public/icons/question-circle-filled-sm.svg

<svg role="img" width="24" height="24" viewBox="0 0 24 24" fill="none" xmlns="http://www.w3.org/2000/svg" class="fill-highlight">
<circle cx="12" cy="12" r="11" />
<path d="M14.9248 9.6748C14.9248 11.7998 12.2998 12.4248 12.2998 13.9248V14.1748H11.1748V13.9248C11.1748 11.9248 13.7998 11.4248 13.7998 9.79977C13.7998 8.79977 13.0498 8.29976 12.0498 8.29976C10.9248 8.29976 10.2998 9.04979 10.2998 10.0498H9.1748C9.1748 8.42479 10.2998 7.1748 12.1748 7.1748C13.7998 7.1748 14.9248 8.1748 14.9248 9.6748ZM12.6748 16.1748C12.6748 16.7998 12.1748 17.1748 11.6748 17.1748C11.1748 17.1748 10.6748 16.7998 10.6748 16.1748C10.6748 15.5498 11.1748 15.1748 11.6748 15.1748C12.2998 15.1748 12.6748 15.6748 12.6748 16.1748Z" fill="currentColor"/>
</svg>

<svg xmlns="http://www.w3.org/2000/svg" width="24" height="24" fill="none" class="fill-highlight" viewBox="0 0 24 24">
  <circle cx="12" cy="12" r="11"/>
  <path fill="currentColor" d="M14.9249 9.6748c0 2.125-2.625 2.75-2.625 4.25v.25h-1.125v-.25c0-2 2.625-2.5 2.625-4.125 0-1-.75-1.5-1.75-1.5-1.125 0-1.75.75-1.75 1.75h-1.125c0-1.625 1.125-2.875 3-2.875 1.625 0 2.75 1 2.75 2.5Zm-2.25 6.5c0 .625-.5 1-1 1s-1-.375-1-1 .5-1 1-1c.625 0 1 .5 1 1Z"/>
</svg>
